X:1
T:O Sole Mio  [C]
T:O Sole Mio  [C]
T:E. di Capua
C:E. di Capua
L:1/8
M:4/4
K:C
V:1 treble 
V:1
|:"C" z2 G2 F2 E2 | D4 C4 | C2 D2 E2 C2 |"Dm" B,4 A,4 | z2 B,2 C2 D2 |"G7" B,2 A,2 A,4- | %6
w: Che bel- la|co- sa|na jur- na- ta'e|so- le,|n'ar- i- a~se-|re- na dop-|
w: Quan- no fa|not- te~e'o|so- le se ne|scen- ne,|me ve- ne|qua- * se|
 A,2 B,2 C2 D2 |"C" (A,2 G,2) G,4 |"C" z2 G2 F2 E2 | D4 C4 | C2 D2 E2 C2 |"Dm"{C} B,4 A,4 | %12
w: * po na tem-|pes- * ta!|Pe' ll'ar- ia|fres- ca|pa- re gi`a na|fes- ta,|
w: 'na mal- in- cun-|i- * a;|sot- to'a fe-|nes- ta|toi- a res- tar-|ri- a|
 z2 F2 E2 D2 |"C" G2 E2 D2 C2 |"G7" D6"^rit..." E2 |"C" D4{ED} C4 |] %16
w: Che bel- la|co- sa na jur-|na- ta'e|so- le.|
w: quan- no fa|not- te~e'o so- le|se ne|scen- ne.|
 z2 !fermata!c2 !fermata!c2 !fermata!B2 |"C" (B2 G2) G4 | z2 B2 B2 A2 |"Dm"{A} F8 | z2 B2 B2 A2 | %21
w: Ma n'a- tu|so- * le|cchi`u bello, oje|ne'.|O so- le|
w: |||||
"Dm"{A} F4 F4 |"G7" z2 D2 E2 F2 |"C" G8 | z4 z2 G2 |"Fm" _A4 A4 | z2 F2 c3 _A |"C" G4 G4 | %28
w: mi- o|sta 'nfron- te~a|te!|O|so- le,|O so- le|mi- o|
w: |||||||
 z2 E2 D2 C2 |"G7" G8 | z2 E2{DE} D3 B, |"C" C8 :| x8 |33 z2 E2 D2 C2 |"G7" G8 | z2 G2 [Ge]3 [Fd] | %36
w: sta 'nfron- te~a|te!|sta 'nfron- te~a|te!||sta 'nfron- te~a|te,|sta 'nfron- te~a|
w: ||||||||
"C" [Ec]8 |] %37
w: te!|
w: |

